X: 5
T: Palm Sunday
R: slide
M: 12/8
L: 1/8
K: Ador
B|:AGE G2E|G2E G2E|A2B c2d|e2d efg|
e3 dBA|BAG Bcd|edc BAG|1B2A A2B:|2B2A A2e||
|:a3 efg|a3 bge|g3 gfe|dBA GB/c/d|
efg ded|BAG Bcd|edc BAG|1B2A A2e:|2B2A A2B||


Tune 770	Setting 28704

